X:1
T:Title
%%score { ( 1 4 ) | ( 2 3 ) }
L:1/8
M:4/4
K:G
V:1 treble nm="Grand Piano"
V:4 treble 
V:2 treble 
V:3 treble 
V:1
 z4 z2[Q:1/4=100] G>A | B2 B>B B2 [Ge]>[Ge] | d2 B2 B2 G>A | B2 B>B [Bd]2 [GB]>[GB] | [FA]6 G>A | %5
 B2 B>B B2 [Ge]>[Ge] | [Bd]2 B2 B2 G>A | B2 d>B [FA]2 [FB]>[FA] |[M:3/4] G6 |[M:1/4] B>c | %10
[M:4/4] d6 z2 | d6 z2 | B6 [DGB]2 | [DFA]6 z z/ A/ | B6 z2 | d6 z2 | %16
 [GB]2 [Gd]>[GB] [FA]2 [FB]>[FA] |[M:3/4] [B,G]6 |] %18
V:2
 z4 z2 [G,B,D]>[G,CD] | [G,DG]2 [G,DG]>[G,DG] [G,DG]2[K:bass] [C,C]>[E,C] | %2
 [G,B,G]2 [G,DG]2 [G,DG]2 [G,D]->[G,CD] | [G,D]2 [G,DG]>[G,DG][K:bass] [G,D]2 [G,D]>[G,D] | %4
 [D,D]6 [G,B,D]>[K:treble][G,CD] | [G,DG]2 [G,DG]>[G,DG] [G,DG]2[K:bass] [C,C]>[E,C] | %6
 [G,B,]2[K:treble] [G,DG]2 [G,DG]2 [G,B,]>[G,CF] | %7
 [G,DG]2 [G,B,G]>[G,DG][K:bass] [D,D]2 [D,D]>[D,C] |[M:3/4] [G,B,]6 | %9
[M:1/4][K:treble] [G,G]>[G,A,G] |[M:4/4] G2- [G,G-]>[G,G-] [G,G]2 [G,G]>[G,A,G] | %11
 G2- [G,G-]>[G,G-] [G,G]2 [G,B,G]>[G,CG] | [G,DG]6[K:bass] B,,2 | D,6[K:treble] G>F | G6 z2 | %15
 B6[K:bass] z2 | [D,D]2 [D,D]>[D,D] [D,D]2 [D,D]>[D,C] |[M:3/4] [G,,G,]6 |] %18
V:3
 x8 | x6[K:bass] x2 | z4 z2 B,2 | x4[K:bass] x4 | x15/2[K:treble] x/ | x6[K:bass] x2 | %6
 x2[K:treble] x6 | x4[K:bass] x4 |[M:3/4] x6 |[M:1/4][K:treble] x2 |[M:4/4] [G,B,]2 z2 z4 | %11
 [G,B,]2 z2 z4 | x6[K:bass] x2 | x6[K:treble] x2 | z2 G,2 G,2 c>c | %15
 z2[K:bass] G,2 G,2 [D,B,]>[D,C] | x8 |[M:3/4] x6 |] %18
V:4
 x8 | x8 | x8 | x8 | x8 | x8 | x8 | x8 |[M:3/4] x6 |[M:1/4] x2 |[M:4/4] z2 B,>B, B,2 B>c | %11
 z2 B,>B, B,2 d>c | x8 | x8 | z2 D2 D2 e>e | z2 D2 D2 G>[FA] | x8 |[M:3/4] x6 |] %18

